public/logos/V3.svg

<?xml version="1.0" encoding="UTF-8"?>
<svg xmlns="http://www.w3.org/2000/svg" xmlns:xlink="http://www.w3.org/1999/xlink" width="176.71pt" height="30.95pt" viewBox="0 0 176.71 30.95" version="1.1">
<defs>
<clipPath id="clip1">
  <path d="M 92 9 L 108 9 L 108 30.949219 L 92 30.949219 Z M 92 9 "/>
</clipPath>
<clipPath id="clip2">
  <path d="M 166 9 L 176.710938 9 L 176.710938 25 L 166 25 Z M 166 9 "/>
</clipPath>
</defs>
<g id="surface1">
<path style="fill:none;stroke-width:14.173;stroke-linecap:butt;stroke-linejoin:miter;stroke:rgb(20.895386%,66.616821%,49.557495%);stroke-opacity:1;stroke-miterlimit:3.8636;" d="M 7.070312 302.390625 L 312.929688 302.390625 L 312.929688 36.492188 L 7.070312 36.492188 Z M 7.070312 302.390625 " transform="matrix(0.1,0,0,-0.1,0,30.95)"/>
<path style=" stroke:none;fill-rule:nonzero;fill:rgb(20.895386%,66.616821%,49.557495%);fill-opacity:1;" d="M 30.585938 25.019531 L 19.375 25.019531 L 12.261719 12.703125 L 17.867188 2.996094 L 30.585938 25.019531 "/>
<path style=" stroke:none;fill-rule:nonzero;fill:rgb(20.895386%,66.616821%,49.557495%);fill-opacity:1;" d="M 18.800781 25.019531 L 1.417969 25.019531 L 10.109375 9.96875 Z M 18.800781 25.019531 "/>
<path style=" stroke:none;fill-rule:nonzero;fill:rgb(47.889709%,49.215698%,50.946045%);fill-opacity:1;" d="M 57.585938 8.289062 C 56.648438 7.449219 55.683594 6.835938 54.695312 6.445312 C 53.707031 6.054688 52.652344 5.863281 51.523438 5.863281 C 49.210938 5.863281 47.371094 6.550781 45.996094 7.933594 C 44.621094 9.316406 43.933594 11.175781 43.933594 13.503906 C 43.933594 15.785156 44.574219 17.59375 45.847656 18.933594 C 47.121094 20.269531 48.863281 20.9375 51.066406 20.9375 C 52.320312 20.9375 53.488281 20.730469 54.5625 20.308594 C 55.640625 19.890625 56.640625 19.261719 57.558594 18.421875 L 57.527344 23.179688 C 56.539062 23.761719 55.507812 24.195312 54.425781 24.484375 C 53.34375 24.769531 52.203125 24.914062 51.011719 24.914062 C 47.550781 24.914062 44.714844 23.839844 42.5 21.691406 C 40.28125 19.542969 39.171875 16.816406 39.171875 13.507812 C 39.171875 10.207031 40.28125 7.488281 42.503906 5.34375 C 44.726562 3.203125 47.589844 2.128906 51.09375 2.128906 C 52.265625 2.128906 53.402344 2.253906 54.496094 2.5 C 55.59375 2.746094 56.675781 3.128906 57.742188 3.640625 L 57.585938 8.289062 "/>
<path style=" stroke:none;fill-rule:nonzero;fill:rgb(47.889709%,49.215698%,50.946045%);fill-opacity:1;" d="M 76.066406 24.335938 L 71.972656 24.335938 L 72.03125 22.25 C 71.457031 23.164062 70.769531 23.839844 69.964844 24.269531 C 69.160156 24.699219 68.179688 24.914062 67.023438 24.914062 C 65.097656 24.914062 63.542969 24.199219 62.363281 22.765625 C 61.183594 21.332031 60.59375 19.445312 60.59375 17.09375 C 60.59375 14.648438 61.171875 12.738281 62.335938 11.371094 C 63.496094 10.003906 65.109375 9.320312 67.171875 9.320312 C 68.25 9.320312 69.195312 9.5625 70.011719 10.042969 C 70.824219 10.527344 71.507812 11.246094 72.0625 12.203125 L 72.0625 9.804688 L 76.066406 9.804688 Z M 72.210938 17.046875 C 72.210938 15.742188 71.882812 14.710938 71.222656 13.949219 C 70.566406 13.1875 69.679688 12.808594 68.5625 12.808594 C 67.417969 12.808594 66.515625 13.1875 65.859375 13.941406 C 65.199219 14.699219 64.871094 15.734375 64.871094 17.046875 C 64.871094 18.363281 65.195312 19.382812 65.84375 20.117188 C 66.488281 20.847656 67.386719 21.210938 68.535156 21.210938 C 69.699219 21.210938 70.605469 20.847656 71.246094 20.117188 C 71.886719 19.382812 72.210938 18.363281 72.210938 17.046875 "/>
<path style=" stroke:none;fill-rule:nonzero;fill:rgb(47.889709%,49.215698%,50.946045%);fill-opacity:1;" d="M 84.125 13.539062 C 84.550781 12.128906 85.160156 11.070312 85.953125 10.371094 C 86.75 9.671875 87.734375 9.320312 88.910156 9.320312 C 89.175781 9.320312 89.613281 9.367188 90.226562 9.46875 C 90.34375 9.488281 90.433594 9.5 90.492188 9.511719 L 89.855469 14.050781 C 89.539062 13.921875 89.222656 13.824219 88.902344 13.757812 C 88.578125 13.691406 88.242188 13.65625 87.886719 13.65625 C 86.601562 13.65625 85.679688 13.984375 85.117188 14.644531 C 84.554688 15.300781 84.273438 16.402344 84.273438 17.945312 L 84.273438 24.335938 L 80.054688 24.335938 L 80.054688 9.804688 L 84.214844 9.804688 L 84.125 13.539062 "/>
<g clip-path="url(#clip1)" clip-rule="nonzero">
<path style=" stroke:none;fill-rule:nonzero;fill:rgb(47.889709%,49.215698%,50.946045%);fill-opacity:1;" d="M 92.425781 30.949219 L 92.425781 9.804688 L 96.464844 9.804688 L 96.464844 12.203125 C 97.015625 11.234375 97.695312 10.515625 98.5 10.035156 C 99.304688 9.558594 100.242188 9.320312 101.308594 9.320312 C 103.371094 9.320312 104.984375 10.003906 106.152344 11.371094 C 107.316406 12.738281 107.898438 14.644531 107.898438 17.09375 C 107.898438 19.453125 107.308594 21.347656 106.136719 22.773438 C 104.960938 24.199219 103.414062 24.914062 101.5 24.914062 C 100.34375 24.914062 99.363281 24.699219 98.558594 24.269531 C 97.753906 23.839844 97.066406 23.164062 96.496094 22.246094 C 96.542969 22.613281 96.582031 23.011719 96.605469 23.441406 C 96.628906 23.867188 96.640625 24.359375 96.640625 24.914062 L 96.640625 30.949219 Z M 96.273438 17.046875 C 96.273438 18.363281 96.59375 19.382812 97.242188 20.113281 C 97.890625 20.847656 98.789062 21.210938 99.945312 21.210938 C 101.101562 21.210938 102.003906 20.847656 102.648438 20.113281 C 103.296875 19.382812 103.621094 18.363281 103.621094 17.046875 C 103.621094 15.734375 103.292969 14.699219 102.636719 13.941406 C 101.976562 13.1875 101.070312 12.808594 99.917969 12.808594 C 98.800781 12.808594 97.914062 13.1875 97.257812 13.949219 C 96.601562 14.710938 96.273438 15.742188 96.273438 17.046875 "/>
</g>
<path style=" stroke:none;fill-rule:nonzero;fill:rgb(47.889709%,49.215698%,50.946045%);fill-opacity:1;" d="M 125.6875 24.335938 L 121.589844 24.335938 L 121.652344 22.25 C 121.078125 23.164062 120.390625 23.839844 119.585938 24.269531 C 118.78125 24.699219 117.800781 24.914062 116.644531 24.914062 C 114.71875 24.914062 113.164062 24.199219 111.984375 22.765625 C 110.804688 21.332031 110.210938 19.445312 110.210938 17.09375 C 110.210938 14.648438 110.792969 12.738281 111.953125 11.371094 C 113.113281 10.003906 114.726562 9.320312 116.792969 9.320312 C 117.867188 9.320312 118.8125 9.5625 119.628906 10.042969 C 120.445312 10.527344 121.128906 11.246094 121.679688 12.203125 L 121.679688 9.804688 L 125.6875 9.804688 Z M 121.828125 17.046875 C 121.828125 15.742188 121.5 14.710938 120.84375 13.949219 C 120.1875 13.1875 119.300781 12.808594 118.183594 12.808594 C 117.035156 12.808594 116.132812 13.1875 115.476562 13.941406 C 114.820312 14.699219 114.492188 15.734375 114.492188 17.046875 C 114.492188 18.363281 114.816406 19.382812 115.460938 20.117188 C 116.109375 20.847656 117.007812 21.210938 118.152344 21.210938 C 119.320312 21.210938 120.222656 20.847656 120.867188 20.117188 C 121.507812 19.382812 121.828125 18.363281 121.828125 17.046875 "/>
<path style=" stroke:none;fill-rule:nonzero;fill:rgb(47.889709%,49.215698%,50.946045%);fill-opacity:1;" d="M 130.191406 24.335938 L 130.191406 13.113281 L 128.160156 13.113281 L 128.160156 9.804688 L 130.191406 9.804688 L 130.191406 4.980469 L 134.40625 4.980469 L 134.40625 9.804688 L 136.441406 9.804688 L 136.441406 13.113281 L 134.40625 13.113281 L 134.40625 24.335938 L 130.191406 24.335938 "/>
<path style=" stroke:none;fill-rule:nonzero;fill:rgb(47.889709%,49.215698%,50.946045%);fill-opacity:1;" d="M 153.625 24.335938 L 149.53125 24.335938 L 149.589844 22.25 C 149.015625 23.164062 148.328125 23.839844 147.523438 24.269531 C 146.71875 24.699219 145.738281 24.914062 144.582031 24.914062 C 142.65625 24.914062 141.101562 24.199219 139.921875 22.765625 C 138.742188 21.332031 138.152344 19.445312 138.152344 17.09375 C 138.152344 14.648438 138.730469 12.738281 139.890625 11.371094 C 141.054688 10.003906 142.664062 9.320312 144.730469 9.320312 C 145.804688 9.320312 146.753906 9.5625 147.566406 10.042969 C 148.382812 10.527344 149.066406 11.246094 149.617188 12.203125 L 149.617188 9.804688 L 153.625 9.804688 Z M 149.765625 17.046875 C 149.765625 15.742188 149.4375 14.710938 148.78125 13.949219 C 148.125 13.1875 147.238281 12.808594 146.121094 12.808594 C 144.972656 12.808594 144.070312 13.1875 143.414062 13.941406 C 142.757812 14.699219 142.429688 15.734375 142.429688 17.046875 C 142.429688 18.363281 142.753906 19.382812 143.398438 20.117188 C 144.046875 20.847656 144.945312 21.210938 146.089844 21.210938 C 147.257812 21.210938 148.160156 20.847656 148.804688 20.117188 C 149.445312 19.382812 149.765625 18.363281 149.765625 17.046875 "/>
<path style=" stroke:none;fill-rule:nonzero;fill:rgb(47.889709%,49.215698%,50.946045%);fill-opacity:1;" d="M 157.765625 24.335938 L 157.765625 9.804688 L 161.980469 9.804688 L 161.980469 24.335938 Z M 157.402344 3.835938 C 157.402344 3.164062 157.644531 2.585938 158.125 2.097656 C 158.609375 1.613281 159.1875 1.371094 159.859375 1.371094 C 160.539062 1.371094 161.125 1.613281 161.613281 2.09375 C 162.101562 2.574219 162.34375 3.152344 162.34375 3.835938 C 162.34375 4.519531 162.101562 5.105469 161.613281 5.589844 C 161.125 6.074219 160.539062 6.316406 159.859375 6.316406 C 159.1875 6.316406 158.609375 6.070312 158.125 5.574219 C 157.644531 5.078125 157.402344 4.5 157.402344 3.835938 "/>
<g clip-path="url(#clip2)" clip-rule="nonzero">
<path style=" stroke:none;fill-rule:nonzero;fill:rgb(47.889709%,49.215698%,50.946045%);fill-opacity:1;" d="M 170.339844 13.539062 C 170.765625 12.128906 171.375 11.070312 172.167969 10.371094 C 172.964844 9.671875 173.949219 9.320312 175.125 9.320312 C 175.390625 9.320312 175.828125 9.367188 176.441406 9.46875 C 176.5625 9.488281 176.648438 9.5 176.707031 9.511719 L 176.070312 14.050781 C 175.753906 13.921875 175.4375 13.824219 175.117188 13.757812 C 174.796875 13.691406 174.457031 13.65625 174.101562 13.65625 C 172.816406 13.65625 171.894531 13.984375 171.332031 14.644531 C 170.769531 15.300781 170.488281 16.402344 170.488281 17.945312 L 170.488281 24.335938 L 166.269531 24.335938 L 166.269531 9.804688 L 170.429688 9.804688 L 170.339844 13.539062 "/>
</g>
</g>
</svg>

<svg xmlns="http://www.w3.org/2000/svg" width="235.613" height="41.267" viewBox="0 0 176.71 30.95"><defs><clipPath id="a"><path d="M92 9h16v21.95H92Zm0 0"/></clipPath><clipPath id="b"><path d="M166 9h10.71v16H166Zm0 0"/></clipPath></defs><path d="M7.07 302.39h305.86V36.493H7.07Zm0 0" style="fill:none;stroke-width:14.173;stroke-linecap:butt;stroke-linejoin:miter;stroke:#35aa7e;stroke-opacity:1;stroke-miterlimit:3.8636" transform="matrix(.1 0 0 -.1 0 30.95)"/><path d="M30.586 25.02H19.375l-7.113-12.317 5.605-9.707zM18.8 25.02H1.419l8.691-15.051Zm0 0" style="stroke:none;fill-rule:nonzero;fill:#35aa7e;fill-opacity:1"/><path d="M57.586 8.29q-1.408-1.26-2.89-1.845a8.5 8.5 0 0 0-3.173-.582q-3.466-.002-5.527 2.07c-1.375 1.383-2.062 3.243-2.062 5.57q.001 3.422 1.914 5.43 1.912 2.005 5.218 2.005 1.883.002 3.496-.63 1.62-.626 2.997-1.886l-.032 4.758a12.4 12.4 0 0 1-3.101 1.304 13.4 13.4 0 0 1-3.414.43q-5.19 0-8.512-3.223-3.328-3.221-3.328-8.183 0-4.95 3.332-8.164c2.223-2.14 5.086-3.215 8.59-3.215q1.76.001 3.402.371c1.098.246 2.18.629 3.246 1.14zM76.066 24.336h-4.093l.058-2.086q-.86 1.373-2.066 2.02-1.207.644-2.942.644-2.889 0-4.66-2.148c-1.18-1.434-1.77-3.32-1.77-5.672q-.002-3.67 1.743-5.723 1.74-2.05 4.836-2.05 1.616.001 2.84.722 1.219.725 2.05 2.16V9.805h4.004Zm-3.855-7.29q.001-1.955-.988-3.097-.985-1.14-2.66-1.14-1.718.001-2.704 1.132-.989 1.137-.988 3.106c0 1.316.324 2.336.973 3.07q.968 1.095 2.691 1.094 1.748.001 2.711-1.094c.64-.734.965-1.754.965-3.07M84.125 13.54c.426-1.411 1.035-2.47 1.828-3.169q1.194-1.05 2.957-1.05c.266 0 .703.046 1.317.148.117.02.207.031.265.043l-.637 4.539a5.03 5.03 0 0 0-1.969-.395q-1.925-.001-2.769.989-.843.985-.844 3.3v6.39h-4.218V9.806h4.16z" style="stroke:none;fill-rule:nonzero;fill:#7a7e82;fill-opacity:1"/><g clip-path="url(#a)"><path d="M92.426 30.95V9.804h4.039v2.398c.55-.969 1.23-1.687 2.035-2.168q1.208-.714 2.809-.715 3.092 0 4.843 2.051 1.746 2.05 1.746 5.723c0 2.36-.59 4.254-1.761 5.68q-1.765 2.139-4.637 2.14-1.734 0-2.941-.644-1.208-.646-2.063-2.024.072.551.11 1.195.035.64.035 1.473v6.035Zm3.847-13.903c0 1.316.32 2.336.97 3.066.648.735 1.546 1.098 2.702 1.098 1.157 0 2.059-.363 2.703-1.098q.973-1.093.973-3.066 0-1.97-.984-3.106-.99-1.132-2.719-1.132-1.676 0-2.66 1.14-.984 1.142-.985 3.098" style="stroke:none;fill-rule:nonzero;fill:#7a7e82;fill-opacity:1"/></g><path d="M125.688 24.336h-4.098l.062-2.086q-.86 1.373-2.066 2.02-1.207.644-2.941.644-2.89 0-4.66-2.148c-1.18-1.434-1.774-3.32-1.774-5.672q.001-3.67 1.742-5.723 1.74-2.05 4.84-2.05 1.612.001 2.836.722 1.225.725 2.05 2.16V9.805h4.008Zm-3.86-7.29q0-1.955-.984-3.097-.984-1.14-2.66-1.14-1.723.001-2.707 1.132-.985 1.137-.985 3.106c0 1.316.324 2.336.969 3.07q.974 1.095 2.691 1.094c1.168 0 2.07-.363 2.715-1.094.64-.734.961-1.754.961-3.07M130.191 24.336V13.113h-2.03V9.805h2.03V4.98h4.215v4.825h2.035v3.308h-2.035v11.223zM153.625 24.336h-4.094l.059-2.086q-.86 1.373-2.067 2.02-1.207.644-2.941.644-2.89 0-4.66-2.148c-1.18-1.434-1.77-3.32-1.77-5.672q-.001-3.67 1.739-5.723c1.164-1.367 2.773-2.05 4.84-2.05 1.074 0 2.023.242 2.835.722q1.225.725 2.051 2.16V9.805h4.008Zm-3.86-7.29q0-1.955-.984-3.097-.984-1.14-2.66-1.14-1.722.001-2.707 1.132-.984 1.137-.984 3.106c0 1.316.324 2.336.968 3.07q.974 1.095 2.692 1.094c1.168 0 2.07-.363 2.715-1.094.64-.734.96-1.754.96-3.07M157.766 24.336V9.805h4.214v14.53Zm-.364-20.5q.001-1.007.723-1.738a2.37 2.37 0 0 1 1.734-.727q1.021 0 1.754.723c.489.48.73 1.058.73 1.742a2.38 2.38 0 0 1-.73 1.754 2.4 2.4 0 0 1-1.754.726q-1.008.001-1.734-.742-.721-.743-.723-1.738" style="stroke:none;fill-rule:nonzero;fill:#7a7e82;fill-opacity:1"/><g clip-path="url(#b)"><path d="M170.34 13.54c.426-1.411 1.035-2.47 1.828-3.169q1.194-1.05 2.957-1.05c.266 0 .703.046 1.316.148.121.02.207.031.266.043l-.637 4.539a5.5 5.5 0 0 0-.953-.293 5 5 0 0 0-1.015-.102q-1.927-.001-2.77.989-.844.985-.844 3.3v6.39h-4.218V9.806h4.16z" style="stroke:none;fill-rule:nonzero;fill:#7a7e82;fill-opacity:1"/></g></svg>
